X: 1
T: Farfarsvalsen
T: D\"odens vals
O: efter Erik Sahlstr\"om
M: 3/4
L: 1/8
%%staffsep 50
K: G
|: "G"d3 d d2 | d2 c2 B2 | d3 d d2 | d2 c2 B2 \
| "C"e3 e e2 | e2 f2 g2 | "G"d3 d d2 | d2 c2 B2 |
| "D7"c3 c c2 | c2 B2 A2 | "G"G3 G G2 | G2 F2 E2 \
| "D7"D3 D D2 | D2 E2 F2 | "(G,)"AG FG BA | "G"G4 G2 :|[K:D]
|: "D"F2 (3AFA dF | (3AFA dF Ad | "G"G2 (3BGB dG | (3BGB dG Bd | "A7"A2 (3cAc eA |
| (3cAc eA ce |1,3 "D"A2 (3dAd fA | dAd fA df :|2,4 "D"d2 A2 F2 | "(D7)"D4 z2 |]
